!!!COM: Vivaldi, Antonio Lucio
!!!CDT: 1678/03/04-1741/08/28
!!!OPR: 12 Sonatas for Violin and Basso continuo
!!!OTL: Sonata in C major, op. @{OPS}, no. @{ONM} (@{SCT})
!!!OPS: 2
!!!ONM: 6
!!!OMV: 3. Giga
!!!SCT: RV 1
!!!SCA: Antonio Vivaldi: Thematisch-systematisches Verzeichnis seiner Werke (Ryom-Verzeichnis)
!!!OMD: Allegro
!!!key: C
**kern	**fb	**kern
*part2	*	*part1
*staff2	*	*staff1
*ICklav	*	*ICstr
*Icemba	*	*Ivioln
*I"Basso continuo	*	*I"Violino
*I'bc	*	*I'v
*>[A,A,B,B]	*>[A,A,B,B]	*>[A,A,B,B]
*>norep[A,B]	*>norep[A,B]	*>norep[A,B]
*>A	*>A	*>A
*clefF4	*	*clefG2
*k[]	*	*k[]
*C:	*	*C:
*M4/4	*	*M12/8
*met(c)	*	*
*MM189	*	*MM189
=1	=1	=1
4.c\	.	8r
.	.	8gg\L
.	.	8ff\J
4.C/	.	8ee\L
.	.	8dd\
.	.	8cc\J
4.D\	.	8ff\L
.	.	8gg\
.	.	8aa\J
4.BB/	6	4gg\
.	.	8ff\
=2	=2	=2
4.C/	.	8ee\L
.	.	8dd\
.	.	8cc\J
2.c\	6	8aa\L
.	.	8gg\
.	.	8aa\J
.	4 2	8dd\L
.	.	8ee\
.	.	8ff\J
[4.B\	6	4gg\
.	.	8b\
=3	=3	=3
4.B\]	4 2	4cc\
.	.	8c/
2.A\	6	8ff\L
.	.	8ee\
.	.	8ff\J
.	4 2	8b\L
.	.	8cc\
.	.	8dd\J
[4.G\	6	4ee\
.	.	8g/
=4	=4	=4
4.G\]	4 2	4a/
.	.	8A/
2.F\	6	8dd\L
.	.	8cc\
.	.	8dd\J
.	4 2	8b/L
.	.	8a/
.	.	8g/J
4.E\	6	8cc\L
.	.	8dd\
.	.	8ee\J
!!LO:LB:g=original
=5	=5	=5
4.F\	.	8a\L
.	.	8b\
.	.	8cc\J
4.G\	.	4G/
.	.	8b\
4.C/	.	4.c/
[4.c\	.	8r
.	.	8cc\L
.	.	8ee\J
=6	=6	=6
4.c\]	4 2	8dd\L
.	.	8ee\
.	.	8ff\J
4.G\	6	4gg\
.	.	8ff\
4.c\	.	8ee\L
.	.	8dd\
.	.	8cc\J
4.G\	.	8r
.	.	8gg\L
.	.	8bb\J
=7	=7	=7
4.F#X\	5	8aa\L
.	.	8bb\
.	.	8ccc\J
4.D\	7 5 #	4ddd\
.	.	8ccc\
4.GG/	.	8bb\L
.	.	8aa\
.	.	8gg\J
[4.G\	.	8r
.	.	8bb\L
.	.	8ddd\J
=8	=8	=8
4.G\]	4 2	8aa\L
.	.	8bb\
.	.	8ccc\J
2.F#y\	6	4ddd\
.	.	8ff#X\
.	4 2	8gg\L
.	.	8aa\
.	.	8bb\J
[4.E\	6	4ccc\
.	.	8ee\
=9	=9	=9
4.E\]	4 2#|	8ff#X\L
.	.	8gg\
.	.	8aa\J
2.D\	6	4bb\
.	.	8dd\
.	4 2	8ee\L
.	.	8ff#y\
.	.	8gg\J
4.C/	6	4aa\
.	.	8ee\
!!LO:LB:g=original
=10	=10	=10
4.D\	#	8ff#X\L
.	.	8ee\
.	.	8dd\J
4.E\	.	8gg\L
.	.	8ff#y\
.	.	8ee\J
4.F#X\	6	8aa\L
.	.	8gg\
.	.	8ff#y\J
4.G\	.	8bb\L
.	.	8aa\
.	.	8gg\J
=11	=11	=11
4.A\	.	8ccc\L
.	.	8bb\
.	.	8aa\J
4.B\	6	8ddd\L
.	.	8ccc\
.	.	8bb\J
4.c\	.	4eee\
.	.	8ff#X\
4.B\	6	4gg\
.	.	8aa\
=12	=12	=12
4.c\	7 5	8bb\L
.	.	8aa\
.	.	8gg\J
4.d\	#	4dd\
.	.	8ff#X\
4.G\	.	[4.gg\
4.r	.	8gg\L]
.	.	(8aa\
.	.	8ff#y\J)
=13	=13	=13
4.F#X\	6 4 2	(8gg\L
.	.	8ff#X\)
.	.	[8gg\J
4.r	.	8gg\L]
.	.	(8aa\
.	.	8ff#y\J)
4.E\	.	(8gg\L
.	.	8ff#y\)
.	.	[8gg\J
4.r	.	8gg\L]
.	.	(8aa\
.	.	8ff#y\J)
=14	=14	=14
4.D\	6 4	(8gg\L
.	.	8ff#X\)
.	.	[8gg\J
4.r	.	8gg\L]
.	.	(8aa\
.	.	8ff#y\J)
4.E\	.	[4.gg\T
4.BB/	6	(8gg\L]
.	.	8ff#X\
.	.	8ee\J)
=15	=15	=15
4.C/	9	(8dd\L
.	8	8cc\
.	.	8b\J)
4.D\	6 4	4b\t
.	5 #	8a/
2.GG/	.	2.g/
!!LO:LB:g=original
=16:|!|:	=16:|!|:	=16:|!|:
*>B	*>B	*>B
4.GG/	.	8r
.	.	8dd\L
.	.	8cc\J
4.G\	.	8b/L
.	.	8a/
.	.	8g/J
4.A\	.	8cc\L
.	.	8dd\
.	.	8ee\J
4.F#X\	6	4dd\
.	.	8cc\
=17	=17	=17
4.G\	.	8b/L
.	.	8a/
.	.	8g/J
4.B-X\	6	8gg\L
.	.	8aa\
.	.	8bb-X\J
4.A\	#	4cc#X\
.	.	8bb-y\
4.C#X/	6	4aa\
.	.	8gg\
=18	=18	=18
4.D\	.	8ff\L
.	.	8ee\
.	.	8dd\J
4.F\	6	8aa\L
.	.	8ff\
.	.	8dd\J
4.G\	.	4b\
.	.	8aa\
4.BB/	6	4gg\
.	.	8ff\
=19	=19	=19
4.C/	.	8ee\L
.	.	8dd\
.	.	8cc\J
4.c\	.	8r
.	.	8r
.	.	8ee\
4.F#X\	5	(8aa\L
.	.	8gg#X\
.	.	8aa\J)
4.E\	6 4	(8aa\L
.	.	8gg#y\
.	.	8aa\J)
=20	=20	=20
4.D#X\	5	[4.aa\
4.BB/	7 #	8aa\L]
.	.	8gg\
.	.	8ff#X\J
4.E\	.	8gg\L
.	.	8aa\
.	.	8gg\J
4.A\	6#/	8ff#X\L
.	.	8gg\
.	5	8ee\J
!!LO:LB:g=original
=21	=21	=21
4.B\	5 #	8dd#X\L
.	.	8b\
.	6 4	8ee\J
4.BB/	5#r 4	4ee\t
.	X #	8dd#y\
4.E\	.	4.ee\
4.r	.	8r
.	.	(8gg\L
.	.	8ffn\J
=22	=22	=22
4.C/	.	8ee\L
.	.	8dd\
.	.	8cc\J)
4.E\	5-r	4b-X\
.	.	8b-y\
4.F\	5 4-r	(4b-y\T
.	X 3	8a/)
4.r	.	8r
.	.	(8aa\L
.	.	8gg\J
=23	=23	=23
4.D\	#	8ff#X\L
.	.	8ee\
.	.	8dd\J)
4.F#X\	5	4cc\
.	.	8cc\
4.G\	4	(4cc\T
.	3	8bn\)
4.B\	6	8r
.	.	8gg\L
.	.	8ff\J
=24	=24	=24
[2.c\	.	8ee\L
.	.	8dd\
.	.	8cc\J
.	.	8aa\L
.	.	8gg\
.	.	8aa\J
4.c\]	4 2	8dd\L
.	.	8ee\
.	.	8ff\J
[4.B\	6	4gg\
.	.	8b\
=25	=25	=25
4.B\]	4 2	4cc\
.	.	8c/
2.B\	6	8ff\L
.	.	8ee\
.	.	8ff\J
.	4 2	8b\L
.	.	8cc\
.	.	8dd\J
[4.G\	6	4ee\
.	.	8g/
!!LO:LB:g=original
=26	=26	=26
4.G\]	4 2	4a/
.	.	8A/
2.F\	6	8dd\L
.	.	8cc\
.	.	8dd\J
.	4 2	8b/L
.	.	8a/
.	.	8g/J
4.E\	6	8cc\L
.	.	8dd\
.	.	8ee\J
=27	=27	=27
4.F\	6 5	8a\L
.	.	8b\
.	.	8cc\J
4.G\	.	4G/
.	.	8b\
4.C/	.	[4.cc\
4.r	.	8cc\L]
.	.	(8gg\
.	.	8b\J)
=28	=28	=28
4.BB/	6 4 2	(8cc\L
.	.	8b\)
.	.	[8cc\J
4.r	.	8cc\L]
.	.	(8gg\
.	.	8b\J)
4.AA/	.	(8cc\L
.	.	8b\)
.	.	[8cc\J
4.r	.	8cc\L]
.	.	(8gg\
.	.	8b\J)
=29	=29	=29
4.GG/	6 4 2	(8cc\L
.	.	8b\)
.	.	[8cc\J
4.r	.	8cc\L]
.	.	(8gg\
.	.	8b\J)
4.AA/	.	[4.cc\
4.EE/	6	(8cc\L]
.	.	8b\
.	.	8a\J)
=30	=30	=30
4.FF/	9	(8g/L
.	8	8f/
.	.	8e/J)
4.GG/	6 4	(4e/t
.	5 3	8d/)
2.C/;	.	2.c/;
=:|!	=:|!	=:|!
*-	*-	*-
!!!SMS: RV 001/ Estienne Roger, Amsterdam [facs.]
!!!ENC: Fran Bennion; rev. 04/21 E. Correia
!!!END: 2004/11/29
!!!ONB: Converted from MuseData with musedata2hum on Sat May 11 12:07:52 2024
!!!YEM: (C) 2004, 2004 Center for Computer Assisted Research in the Humanities.
!!!system-decoration: [(s1,s2)]
!!!URL-info: https://wiki.ccarh.org/wiki/MuseData:_Antonio_Vivaldi#Op._2:_Sonate_a_violino_e_basso_per_il_cembalo
!!!URL-pdf: https://pdf.musedata.org/vivaldi-op02-no06.pdf#page=4 MuseData edition
!!!URL-pdf: http://conquest.imslp.info/files/imglnks/usimg/b/b7/IMSLP99075-PMLP183164-Vivaldi_-_Sonatas_Op2.pdf#page=23 Estienne Roger Amsterdam: Estienne Roger, No.2, n.d.[1711].
!!!URL-youtube: https://www.youtube.com/watch?v=SiijZmW9jKM&t=1836s L'Arte dell'Arco
!!!title: @{OTL}, mov. @{OMV}
!!!filter-chint: chint -mid
!!!EEV: 2024/05/11
!!!source-file: https://bitbucket.org/musedata/vivaldi/src/master/roger/op2/no06/stage2/03/01
!!!source-file: https://bitbucket.org/musedata/vivaldi/src/master/roger/op2/no06/stage2/03/02
